X: 291
T:Krici Krici Ticek
O:Croatia
F: http://www.youtube.com/watch?v=uQTyBkzsrDM
F: http://www.youtube.com/watch?v=VFGbnucxmpM
F: http://www.youtube.com/watch?v=kYuuixdv-hA
L:1/8
M:4/4
Q:1/4=140
K:AMix
[Bd][Ac][Bd][Ac][B2d2][F2A2]        |[G2B2][EG][GB][F4A4]        |\
[Bd][Ac][Bd][Ac][B2d2][F2A2]        |[G2B2][EG][GB][F4A4]        |
K:Am
[D2G2][D/G/][D/A/][EB][Ec][Ec][A2c2]|[GB][GB][GB][GB][D2A2][D2A2]|\
[D2G2][D/G/][D/A/][EB][Ec][Ec][A2c2]|[GB][GB][GB][GB][D2A2][D2A2]|



